X: 68
T:Clever Colleen (#264), The
M:4/4
L:1/8
S:Rice-Walsh manuscript
R:Reel
K:A
E|A2 (3cBA BEEB|A2 (3cBA ceac|A2 (3cBA BEEe|afec A2 E2|
A2 (3cBA BEEB|A2 (3cBA ceac|A2 (3cBA BEEe|afec A2||
(3efg|a2 eg fece|a2 ga bgeg|a2 eg fece|afec A2 (3efg|
agfe fedc|dcBA GABd|ceAa gbeg|agbg agec|| 

